packages/icons/src/canary-outline.svg

<svg width="24px" height="24px" viewBox="0 0 24 24" version="1.1" xmlns="http://www.w3.org/2000/svg" xmlns:xlink="http://www.w3.org/1999/xlink">
    <g id="CANARY" stroke="none" stroke-width="1" fill="none" fill-rule="evenodd">
        <g stroke="#FFE79A">
            <path d="M15,15 L6.25105013,15 C5.28563428,15 4.43363204,14.20833 4.15219826,13.0493813 L2.10305237,4.61954534 L0,4.61954534 L1.82231868,3.21105805 C1.82231868,3.21105805 1.89792775,0.229774603 3.8791655,0.00659570693 C4.31391767,-0.0426090892 4.73816858,0.186720407 5.03710445,0.586509375 C8.38140577,5.07205373 15,15 15,15" id="Fill-1"></path>
        </g>
    </g>
</svg>

<svg height="24" viewBox="0 0 24 24" width="24" xmlns="http://www.w3.org/2000/svg"><path d="m15 15h-8.74894987c-.96541585 0-1.81741809-.79167-2.09885187-1.9506187l-2.04914589-8.42983596h-2.10305237l1.82231868-1.40848729s.07560907-2.98128345 2.05684682-3.20446234c.43475217-.0492048.85900308.1801247 1.15793895.57991367 3.34430132 4.48554435 9.96289555 14.41349062 9.96289555 14.41349062" fill="none" stroke="#ffe79a"/></svg>
